www/assets/icons/check_box.svg

<svg width="24" height="24" viewBox="0 0 24 24" xmlns="http://www.w3.org/2000/svg" fill='currentColor'><path d="M19 3H5C3.89 3 3 3.9 3 5V19C3 20.1 3.89 21 5 21H19C20.11 21 21 20.1 21 19V5C21 3.9 20.11 3 19 3ZM10 17L5 12L6.41 10.59L10 14.17L17.59 6.58L19 8L10 17Z"/></svg>

<svg xmlns="http://www.w3.org/2000/svg" width="24" height="24" viewBox="0 0 24 24" fill='currentColor'><path d="M19 3H5a2 2 0 0 0-2 2v14a2 2 0 0 0 2 2h14a2 2 0 0 0 2-2V5a2 2 0 0 0-2-2m-9 14-5-5 1.41-1.41L10 14.17l7.59-7.59L19 8z"/></svg>
